img/toktixlogo.svg

<svg width="117" height="25" viewBox="0 0 117 25" fill="none" xmlns="http://www.w3.org/2000/svg">
<path d="M58.6097 23.5456V0.0917969H64.0055V14.558L69.5007 8.02007H76.3862L69.5007 15.5346L77.098 23.5456H69.9145L64.0055 16.9911V23.5456H58.6097Z" fill="black"/>
<path d="M48.9435 7.47387C50.6869 7.47387 52.2483 7.82146 53.6276 8.51663C55.0069 9.2118 56.0773 10.1884 56.8387 11.4463C57.6 12.7042 57.9807 14.1387 57.9807 15.7497C57.9807 17.0077 57.76 18.1497 57.3187 19.1759C56.8883 20.2021 56.2704 21.0794 55.4649 21.8077C54.6704 22.5359 53.7104 23.0987 52.5849 23.4959C51.4593 23.8932 50.218 24.0918 48.8607 24.0918C47.1504 24.0918 45.6056 23.7387 44.2262 23.0325C42.8469 22.3263 41.7656 21.3387 40.9821 20.0697C40.2097 18.8118 39.8235 17.3939 39.8235 15.8159C39.8235 14.249 40.2152 12.8311 40.9987 11.5621C41.7821 10.2821 42.869 9.27801 44.2593 8.54973C45.6607 7.83249 47.2221 7.47387 48.9435 7.47387ZM48.9435 11.7442C48.1931 11.7442 47.5476 11.9428 47.0069 12.3401C46.4773 12.7263 46.0745 13.2339 45.7987 13.8628C45.5338 14.4918 45.4014 15.1539 45.4014 15.849C45.4014 16.9525 45.7049 17.9015 46.3118 18.6959C46.9187 19.4904 47.7462 19.8877 48.7945 19.8877C49.9421 19.8877 50.8414 19.4794 51.4925 18.6628C52.1435 17.8352 52.469 16.8642 52.469 15.7497C52.469 15.0435 52.3311 14.387 52.0552 13.7801C51.7904 13.1621 51.3931 12.6711 50.8635 12.307C50.3338 11.9318 49.6938 11.7442 48.9435 11.7442Z" fill="black"/>
<path d="M26.9297 6.49731V1.20076H42.9021V6.49731H38.0193V23.5456H31.8455V6.49731H26.9297Z" fill="black"/>
<path d="M96.7834 23.5456L103.272 15.2035L97.5448 8.02007H104.215L106.863 12.3235L109.512 8.02007H115.884L110.157 15.3359L116.397 23.5456H110.058L106.599 18.3815L103.156 23.5456H96.7834Z" fill="black"/>
<path d="M91.2883 23.5456V8.02007H96.6676L96.6841 23.5456H91.2883ZM93.9366 0.588348C94.8524 0.588348 95.5531 0.880762 96.0386 1.46559C96.5352 2.05042 96.7834 2.75111 96.7834 3.56766C96.7834 4.38421 96.5352 5.0849 96.0386 5.66973C95.5531 6.26559 94.8524 6.56352 93.9366 6.56352C93.0207 6.56352 92.3034 6.27111 91.7848 5.68628C91.2662 5.09042 91.0069 4.38421 91.0069 3.56766C91.0069 2.75111 91.2662 2.05042 91.7848 1.46559C92.3034 0.880762 93.0207 0.588348 93.9366 0.588348Z" fill="black"/>
<path d="M74.0101 6.49731V1.20076H89.9825V6.49731H85.0998V23.5456H78.926V6.49731H74.0101Z" fill="black"/>
<path d="M16 0V2H22V8H24V2C24 0.895431 23.1046 0 22 0H16Z" fill="#B3E053"/>
<path d="M0 16H2V22H8V24H2C0.895431 24 0 23.1046 0 22V16Z" fill="#B3E053"/>
<path d="M22 16H24V22C24 23.1046 23.1046 24 22 24H16V22H22V16Z" fill="#B3E053"/>
<path d="M0 2C0 0.895431 0.895431 0 2 0H8V2H2V8H0V2Z" fill="#B3E053"/>
<path fill-rule="evenodd" clip-rule="evenodd" d="M7.75735 7.75736C8.5384 6.97631 8.5384 5.70998 7.75735 4.92893L9.17156 3.51472L20.4853 14.8284L19.0711 16.2426C18.29 15.4616 17.0237 15.4616 16.2426 16.2426C15.4616 17.0237 15.4616 18.29 16.2426 19.0711L14.8284 20.4853L3.51471 9.17157L4.92892 7.75736C5.70997 8.5384 6.9763 8.5384 7.75735 7.75736Z" fill="black"/>
</svg>

<?xml version="1.0" encoding="UTF-8"?>
<svg id="Layer_1" xmlns="http://www.w3.org/2000/svg" version="1.1" viewBox="0 0 117 25">
  <!-- Generator: Adobe Illustrator 29.5.1, SVG Export Plug-In . SVG Version: 2.1.0 Build 141)  -->
  <defs>
    <style>
      .st0 {
        fill-rule: evenodd;
      }
    </style>
  </defs>
  <path d="M58.6,23.5V0h5.4v14.5l5.5-6.5h6.9l-6.9,7.5,7.6,8h-7.2l-5.9-6.6v6.6h-5.4Z"/>
  <path d="M48.9,7.5c1.7,0,3.3.3,4.7,1,1.4.7,2.4,1.7,3.2,2.9.8,1.3,1.1,2.7,1.1,4.3s-.2,2.4-.7,3.4c-.4,1-1,1.9-1.9,2.6-.8.7-1.8,1.3-2.9,1.7-1.1.4-2.4.6-3.7.6s-3.3-.4-4.6-1.1c-1.4-.7-2.5-1.7-3.2-3-.8-1.3-1.2-2.7-1.2-4.3s.4-3,1.2-4.3c.8-1.3,1.9-2.3,3.3-3,1.4-.7,3-1.1,4.7-1.1ZM48.9,11.7c-.8,0-1.4.2-1.9.6-.5.4-.9.9-1.2,1.5-.3.6-.4,1.3-.4,2,0,1.1.3,2.1.9,2.8.6.8,1.4,1.2,2.5,1.2s2-.4,2.7-1.2c.7-.8,1-1.8,1-2.9s-.1-1.4-.4-2c-.3-.6-.7-1.1-1.2-1.5-.5-.4-1.2-.6-1.9-.6Z"/>
  <path d="M26.9,6.5V1.2h16v5.3h-4.9v17h-6.2V6.5h-4.9Z"/>
  <path d="M96.8,23.5l6.5-8.3-5.7-7.2h6.7l2.6,4.3,2.6-4.3h6.4l-5.7,7.3,6.2,8.2h-6.3l-3.5-5.2-3.4,5.2h-6.4Z"/>
  <path d="M91.3,23.5v-15.5h5.4v15.5s-5.4,0-5.4,0ZM93.9.6c.9,0,1.6.3,2.1.9.5.6.7,1.3.7,2.1s-.2,1.5-.7,2.1c-.5.6-1.2.9-2.1.9s-1.6-.3-2.2-.9c-.5-.6-.8-1.3-.8-2.1s.3-1.5.8-2.1c.5-.6,1.2-.9,2.2-.9Z"/>
  <path d="M74,6.5V1.2h16v5.3h-4.9v17h-6.2V6.5h-4.9Z"/>
  <path d="M16,0v2h6v6h2V2c0-1.1-.9-2-2-2h-6Z"/>
  <path d="M0,16h2v6h6v2H2c-1.1,0-2-.9-2-2v-6Z"/>
  <path d="M22,16h2v6c0,1.1-.9,2-2,2h-6v-2h6v-6Z"/>
  <path d="M0,2C0,.9.9,0,2,0h6v2H2v6H0V2Z"/>
  <path class="st0" d="M7.8,7.8c.8-.8.8-2,0-2.8l1.4-1.4,11.3,11.3-1.4,1.4c-.8-.8-2-.8-2.8,0-.8.8-.8,2,0,2.8l-1.4,1.4L3.5,9.2l1.4-1.4c.8.8,2,.8,2.8,0Z"/>
</svg>
